docs/logo.svg

<?xml version="1.0" encoding="UTF-8" standalone="no"?><!DOCTYPE svg PUBLIC "-//W3C//DTD SVG 1.1//EN" "http://www.w3.org/Graphics/SVG/1.1/DTD/svg11.dtd"><svg width="100%" height="100%" viewBox="0 0 280 65" version="1.1" xmlns="http://www.w3.org/2000/svg" xmlns:xlink="http://www.w3.org/1999/xlink" xml:space="preserve" xmlns:serif="http://www.serif.com/" style="fill-rule:evenodd;clip-rule:evenodd;stroke-linejoin:round;stroke-miterlimit:2;"><path d="M64.409,37.484l-26.925,0l0,26.989l-10.5,0l0,-26.989l-26.984,0l0,-10.5l26.984,0l0,-26.984l10.5,0l0,26.984l21.803,0l5.122,10.5Zm8.694,-37.484l-12.384,0l31.444,64.473l12.383,0l-31.443,-64.473Z" style="fill:#0080ff;fill-rule:nonzero;"/><path d="M150.352,23.031l3.173,0l-7.176,20.474c-0.783,2.235 -2.893,3.729 -5.261,3.729l-3.047,0l0,-2.434l2.837,0c1.224,0 2.318,-0.764 2.742,-1.912l0.165,-0.45l-1.033,0l-6.789,-19.407l3.284,0l5.608,17.084l5.497,-17.084Zm23.134,9.667c0,5.904 -2.436,10.146 -7.49,10.146c-2.103,0 -3.837,-0.737 -5.128,-2.214l0,6.604l-3.063,0l0,-24.203l2.583,0l0.258,2.693c1.44,-1.991 3.469,-3.135 5.83,-3.135c5.165,0 7.01,4.021 7.01,10.109Zm-3.284,0c0,-5.091 -1.402,-7.637 -4.464,-7.637c-2.177,0 -3.837,1.587 -4.87,3.136l0,9.667c0.996,1.513 2.619,2.435 4.464,2.435c3.247,0 4.87,-2.398 4.87,-7.601Zm-43.942,-10.109c-2.287,0 -4.685,1.07 -6.198,3.099l0,-8.449l-3.062,0l0,25.199l3.062,0l0,-14.167c0.996,-1.513 2.988,-3.247 5.239,-3.247c2.288,0 3.358,1.033 3.358,3.356l0,14.058l3.062,0l0,-14.094c0,-3.615 -1.661,-5.755 -5.461,-5.755Zm110.093,18.116l-0.737,2.175c-1.662,-0.219 -2.99,-1.031 -3.542,-2.765c-1.403,1.807 -3.579,2.729 -6.088,2.729c-3.911,0 -6.273,-2.36 -6.273,-5.976c0,-3.985 3.21,-6.236 9.114,-6.236l2.84,0l0,-1.623c0,-2.804 -1.734,-3.838 -4.612,-3.838c-1.291,0 -3.061,0.259 -5.055,0.959l-0.811,-2.287c2.361,-0.885 4.428,-1.254 6.309,-1.254c4.833,0 7.269,2.435 7.269,6.271l0,9.373c0,1.55 0.517,2.14 1.586,2.472Zm-4.686,-7.97l-2.803,0c-4.318,0 -5.868,1.587 -5.868,4.096c0,2.435 1.218,3.689 3.764,3.689c1.919,0 3.764,-0.996 4.907,-2.766l0,-5.019Zm-36.926,-0.59c0,0.664 -0.037,1.255 -0.074,1.66l-13.061,0c0.148,4.538 2.693,6.494 5.682,6.494c1.77,0 3.505,-0.443 5.202,-1.809l1.439,2.104c-1.808,1.403 -4.243,2.25 -6.641,2.25c-5.682,0 -8.892,-4.058 -8.892,-10.109c0,-5.866 3.32,-10.146 8.338,-10.146c5.019,0 8.007,3.653 8.007,9.556Zm-2.952,-0.702c-0.074,-4.168 -1.955,-6.308 -5.018,-6.308c-2.767,0 -4.907,2.03 -5.165,6.308l10.183,0Zm66.188,1.255c0,5.904 -2.436,10.146 -7.49,10.146c-2.103,0 -3.837,-0.737 -5.128,-2.214l0,6.604l-3.063,0l0,-24.203l2.583,0l0.258,2.693c1.44,-1.991 3.468,-3.135 5.829,-3.135c5.166,0 7.011,4.021 7.011,10.109Zm-3.284,0c0,-5.091 -1.402,-7.637 -4.464,-7.637c-2.177,0 -3.837,1.587 -4.87,3.136l0,9.667c0.996,1.513 2.619,2.435 4.464,2.435c3.247,0 4.87,-2.398 4.87,-7.601Zm24.686,0c0,5.904 -2.435,10.146 -7.49,10.146c-2.102,0 -3.837,-0.737 -5.128,-2.214l0,6.604l-3.062,0l0,-24.203l2.583,0l0.257,2.693c1.44,-1.991 3.468,-3.135 5.83,-3.135c5.166,0 7.01,4.021 7.01,10.109Zm-3.284,0c0,-5.091 -1.401,-7.637 -4.464,-7.637c-2.177,0 -3.837,1.587 -4.87,3.136l0,9.667c0.996,1.513 2.619,2.435 4.464,2.435c3.247,0 4.87,-2.398 4.87,-7.601Zm-68.56,-5.94l-0.37,-3.727l-7.195,0l0,2.399l4.539,0l0,14.574l-4.539,0l0,2.434l13.062,0l0,-2.434l-5.461,0l0,-9.187c0.664,-2.693 2.693,-5.239 5.313,-5.239c0.812,0 1.403,0.11 2.251,0.332l0.553,-3.026c-0.922,-0.222 -1.586,-0.295 -2.546,-0.295c-2.324,0 -4.464,1.401 -5.607,4.169Z" style="fill-rule:nonzero;"/></svg>

<?xml version="1.0" encoding="UTF-8" standalone="no"?>
<!DOCTYPE svg PUBLIC "-//W3C//DTD SVG 1.1//EN" "http://www.w3.org/Graphics/SVG/1.1/DTD/svg11.dtd">
<svg width="100%" height="100%" viewBox="0 0 10016 2327" version="1.1" xmlns="http://www.w3.org/2000/svg" xmlns:xlink="http://www.w3.org/1999/xlink" xml:space="preserve" xmlns:serif="http://www.serif.com/" style="fill-rule:evenodd;clip-rule:evenodd;stroke-linejoin:round;stroke-miterlimit:2;">
    <g transform="matrix(1,0,0,1,-63135.4,-23119)">
        <g transform="matrix(41.7198,0,0,91.068,30706.5,0)">
            <g id="Horizontal" transform="matrix(0.679783,0,0,0.781638,433.022,146.121)">
                <g transform="matrix(1.2621,0,0,0.502846,507.021,137.976)">
                    <path d="M150.352,23.031L153.525,23.031L146.349,43.505C145.566,45.74 143.456,47.234 141.088,47.234L138.041,47.234L138.041,44.8L140.878,44.8C142.102,44.8 143.196,44.036 143.62,42.888L143.785,42.438L142.752,42.438L135.963,23.031L139.247,23.031L144.855,40.115L150.352,23.031ZM173.486,32.698C173.486,38.602 171.05,42.844 165.996,42.844C163.893,42.844 162.159,42.107 160.868,40.63L160.868,47.234L157.805,47.234L157.805,23.031L160.388,23.031L160.646,25.724C162.086,23.733 164.115,22.589 166.476,22.589C171.641,22.589 173.486,26.61 173.486,32.698ZM170.202,32.698C170.202,27.607 168.8,25.061 165.738,25.061C163.561,25.061 161.901,26.648 160.868,28.197L160.868,37.864C161.864,39.377 163.487,40.299 165.332,40.299C168.579,40.299 170.202,37.901 170.202,32.698ZM126.26,22.589C123.973,22.589 121.575,23.659 120.062,25.688L120.062,17.239L117,17.239L117,42.438L120.062,42.438L120.062,28.271C121.058,26.758 123.05,25.024 125.301,25.024C127.589,25.024 128.659,26.057 128.659,28.38L128.659,42.438L131.721,42.438L131.721,28.344C131.721,24.729 130.06,22.589 126.26,22.589ZM236.353,40.705L235.616,42.88C233.954,42.661 232.626,41.849 232.074,40.115C230.671,41.922 228.495,42.844 225.986,42.844C222.075,42.844 219.713,40.484 219.713,36.868C219.713,32.883 222.923,30.632 228.827,30.632L231.667,30.632L231.667,29.009C231.667,26.205 229.933,25.171 227.055,25.171C225.764,25.171 223.994,25.43 222,26.13L221.189,23.843C223.55,22.958 225.617,22.589 227.498,22.589C232.331,22.589 234.767,25.024 234.767,28.86L234.767,38.233C234.767,39.783 235.284,40.373 236.353,40.705ZM231.667,32.735L228.864,32.735C224.546,32.735 222.996,34.322 222.996,36.831C222.996,39.266 224.214,40.52 226.76,40.52C228.679,40.52 230.524,39.524 231.667,37.754L231.667,32.735ZM194.741,32.145C194.741,32.809 194.704,33.4 194.667,33.805L181.606,33.805C181.754,38.343 184.299,40.299 187.288,40.299C189.058,40.299 190.793,39.856 192.49,38.49L193.929,40.594C192.121,41.997 189.686,42.844 187.288,42.844C181.606,42.844 178.396,38.786 178.396,32.735C178.396,26.869 181.716,22.589 186.734,22.589C191.753,22.589 194.741,26.242 194.741,32.145ZM191.789,31.443C191.715,27.275 189.834,25.135 186.771,25.135C184.004,25.135 181.864,27.165 181.606,31.443L191.789,31.443ZM257.977,32.698C257.977,38.602 255.541,42.844 250.487,42.844C248.384,42.844 246.65,42.107 245.359,40.63L245.359,47.234L242.296,47.234L242.296,23.031L244.879,23.031L245.137,25.724C246.577,23.733 248.605,22.589 250.966,22.589C256.132,22.589 257.977,26.61 257.977,32.698ZM254.693,32.698C254.693,27.607 253.291,25.061 250.229,25.061C248.052,25.061 246.392,26.648 245.359,28.197L245.359,37.864C246.355,39.377 247.978,40.299 249.823,40.299C253.07,40.299 254.693,37.901 254.693,32.698ZM279.379,32.698C279.379,38.602 276.944,42.844 271.889,42.844C269.787,42.844 268.052,42.107 266.761,40.63L266.761,47.234L263.699,47.234L263.699,23.031L266.282,23.031L266.539,25.724C267.979,23.733 270.007,22.589 272.369,22.589C277.535,22.589 279.379,26.61 279.379,32.698ZM276.095,32.698C276.095,27.607 274.694,25.061 271.631,25.061C269.454,25.061 267.794,26.648 266.761,28.197L266.761,37.864C267.757,39.377 269.38,40.299 271.225,40.299C274.472,40.299 276.095,37.901 276.095,32.698ZM207.535,26.758L207.165,23.031L199.97,23.031L199.97,25.43L204.509,25.43L204.509,40.004L199.97,40.004L199.97,42.438L213.032,42.438L213.032,40.004L207.571,40.004L207.571,30.817C208.235,28.124 210.264,25.578 212.884,25.578C213.696,25.578 214.287,25.688 215.135,25.91L215.688,22.884C214.766,22.662 214.102,22.589 213.142,22.589C210.818,22.589 208.678,23.99 207.535,26.758Z" style="fill-rule:nonzero;"/>
                </g>
                <g transform="matrix(0.0331466,0,0,0.0132063,122.127,49.6546)">
                    <path d="M13037.3,7710.26L13870,7710.26L14070,8120.33L13037.3,8120.33L13037.3,9152.79L12627.3,9152.79L12627.3,8120.33L11594.8,8120.33L11594.8,7710.26L12627.3,7710.26L12627.3,6677.83L13037.3,6677.83L13037.3,7710.26ZM15605.7,9152.79L15122.6,9152.79L13915.5,6677.83L14398.6,6677.83L15605.7,9152.79Z" style="fill:rgb(0,128,255);fill-rule:nonzero;"/>
                </g>
            </g>
        </g>
    </g>
</svg>
